svgs/regular/square-this-way-up.svg

<svg xmlns="http://www.w3.org/2000/svg" viewBox="0 0 448 512"><!--! Font Awesome Pro 6.5.1 by @fontawesome - https://fontawesome.com License - https://fontawesome.com/license (Commercial License) Copyright 2023 Fonticons, Inc. --><path d="M64 80c-8.8 0-16 7.2-16 16V416c0 8.8 7.2 16 16 16H384c8.8 0 16-7.2 16-16V96c0-8.8-7.2-16-16-16H64zM0 96C0 60.7 28.7 32 64 32H384c35.3 0 64 28.7 64 64V416c0 35.3-28.7 64-64 64H64c-35.3 0-64-28.7-64-64V96zM120 352H328c13.3 0 24 10.7 24 24s-10.7 24-24 24H120c-13.3 0-24-10.7-24-24s10.7-24 24-24zM328 192V296c0 13.3-10.7 24-24 24s-24-10.7-24-24V192H254.5c-8 0-14.5-6.5-14.5-14.5c0-3.5 1.3-7 3.7-9.6L286.2 120c4.5-5.1 11-8 17.8-8s13.2 2.9 17.8 8l42.6 47.9c2.4 2.7 3.7 6.1 3.7 9.6c0 8-6.5 14.5-14.5 14.5H328zM80 177.5c0-3.5 1.3-7 3.7-9.6L126.2 120c4.5-5.1 11-8 17.8-8s13.2 2.9 17.8 8l42.6 47.9c2.4 2.7 3.7 6.1 3.7 9.6c0 8-6.5 14.5-14.5 14.5H168V296c0 13.3-10.7 24-24 24s-24-10.7-24-24V192H94.5c-8 0-14.5-6.5-14.5-14.5z"/></svg>

<svg xmlns="http://www.w3.org/2000/svg" viewBox="0 0 448 512"><!--! Font Awesome Pro 6.1.1 by @fontawesome - https://fontawesome.com License - https://fontawesome.com/license (Commercial License) Copyright 2022 Fonticons, Inc. --><path d="M328 352C341.3 352 352 362.7 352 376C352 389.3 341.3 400 328 400H120C106.7 400 96 389.3 96 376C96 362.7 106.7 352 120 352H328zM328 192V296C328 309.3 317.3 320 304 320C290.7 320 280 309.3 280 296V192H254.5C246.5 192 240 185.5 240 177.5C240 173.1 241.3 170.5 243.7 167.9L286.2 119.1C290.8 114.9 297.2 112 304 112C310.8 112 317.2 114.9 321.8 119.1L364.3 167.9C366.7 170.5 368 173.1 368 177.5C368 185.5 361.5 192 353.5 192H328zM83.66 167.9L126.2 119.1C130.8 114.9 137.2 112 144 112C150.8 112 157.2 114.9 161.8 119.1L204.3 167.9C206.7 170.5 208 173.1 208 177.5C208 185.5 201.5 192 193.5 192H168V296C168 309.3 157.3 320 144 320C130.7 320 120 309.3 120 296V192H94.49C86.49 192 80 185.5 80 177.5C80 173.1 81.3 170.5 83.66 167.9V167.9zM0 96C0 60.65 28.65 32 64 32H384C419.3 32 448 60.65 448 96V416C448 451.3 419.3 480 384 480H64C28.65 480 0 451.3 0 416V96zM48 96V416C48 424.8 55.16 432 64 432H384C392.8 432 400 424.8 400 416V96C400 87.16 392.8 80 384 80H64C55.16 80 48 87.16 48 96z"/></svg>
